X: 1
T: Man In The Moon, The
M: 6/8
L: 1/8
R: jig
K: Dmaj
|:ABA DFA |dAd f2 e|dfb afd|
B3 .B ef|gfg Bde| fed ecd|
[1efe dcB| ABA GFG:|2efe ABc| d3 .d fg||
|:afd bge|afa B2 A|dfb afd|
~B3 B ef|gec aec|Ace gfg|
[1aba gfe|fdB AFA:|2 aba ABc|d3 .d cB||
